X:1
T:THE POSTMAN'S TALE
M:4/4
Q:1/4=120
K:Eb
G8|c2BAG2EF|G2FFG3G|d=B3/2A/2GFEDC|-CE3/2D/2C3Gc|
-ccde2dcc|-cB3/2A/2c3AG|-GG3/2A/2GFEDC|-CE3/2D/2C7/4||
